static/info.svg

<svg width="27" height="27" viewBox="0 0 27 27" fill="none" xmlns="http://www.w3.org/2000/svg">
<path d="M13.5 27C9.89402 27 6.50389 25.5957 3.95402 23.046C1.40426 20.4961 0 17.106 0 13.5C0 9.89402 1.40426 6.50389 3.95402 3.95402C6.50389 1.40426 9.89402 0 13.5 0C17.106 0 20.4961 1.40426 23.046 3.95402C25.5957 6.50389 27 9.89402 27 13.5C27 17.106 25.5957 20.4961 23.046 23.046C20.4961 25.5957 17.106 27 13.5 27Z" fill="#4B82BC"/>
<path d="M23.046 3.95402C20.4961 1.40426 17.106 0 13.5 0V27C17.106 27 20.4961 25.5957 23.046 23.046C25.5957 20.4961 27 17.106 27 13.5C27 9.89402 25.5957 6.50389 23.046 3.95402Z" fill="#4B82BC"/>
<path d="M15.873 19.5645V11.6543H10.0723V13.2363H11.127V19.5645H10.0195V21.1465H16.875V19.5645H15.873Z" fill="#E4F7FF"/>
<path d="M13.5 10.0723C14.8085 10.0723 15.873 9.00772 15.873 7.69922C15.873 6.39072 14.8085 5.32617 13.5 5.32617C12.1915 5.32617 11.127 6.39072 11.127 7.69922C11.127 9.00772 12.1915 10.0723 13.5 10.0723Z" fill="#E4F7FF"/>
<path d="M13.5 10.0723C14.8085 10.0723 15.873 9.00772 15.873 7.69922C15.873 6.39072 14.8085 5.32617 13.5 5.32617V10.0723Z" fill="#CBEDFD"/>
<path d="M15.873 19.5645V11.6543H13.5V21.1465H16.875V19.5645H15.873Z" fill="#CBEDFD"/>
</svg>

<svg width="27" height="27" fill="none" xmlns="http://www.w3.org/2000/svg"><path d="M13.5 27a13.412 13.412 0 0 1-9.546-3.954A13.412 13.412 0 0 1 0 13.5c0-3.606 1.404-6.996 3.954-9.546A13.412 13.412 0 0 1 13.5 0c3.606 0 6.996 1.404 9.546 3.954A13.412 13.412 0 0 1 27 13.5c0 3.606-1.404 6.996-3.954 9.546A13.412 13.412 0 0 1 13.5 27z" fill="#4B82BC"/><path d="M23.046 3.954A13.412 13.412 0 0 0 13.5 0v27c3.606 0 6.996-1.404 9.546-3.954A13.412 13.412 0 0 0 27 13.5c0-3.606-1.404-6.996-3.954-9.546z" fill="#4B82BC"/><path d="M15.873 19.564v-7.91h-5.8v1.582h1.054v6.328H10.02v1.582h6.855v-1.582h-1.002zM13.5 10.072A2.376 2.376 0 0 0 15.873 7.7 2.376 2.376 0 0 0 13.5 5.326 2.376 2.376 0 0 0 11.127 7.7a2.376 2.376 0 0 0 2.373 2.373z" fill="#E4F7FF"/><path d="M13.5 10.072A2.376 2.376 0 0 0 15.873 7.7 2.376 2.376 0 0 0 13.5 5.326v4.746zM15.873 19.564v-7.91H13.5v9.492h3.375v-1.582h-1.002z" fill="#CBEDFD"/></svg>
